dist/svg/u1F6C1.svg

<?xml version="1.0" encoding="UTF-8"?><svg id="Layer_1" xmlns="http://www.w3.org/2000/svg" viewBox="0 0 40 40"><g><path d="M15.06313,32.15198h-3.65241l-2.3918,3.65378c-.47659,.72805,.04573,1.69424,.9159,1.69424h.67919c.59171,0,1.14354-.29832,1.46762-.79339l2.98151-4.55463Z" style="fill:#acb6c4;"/><path d="M26.99951,32.15198h3.65241l2.3918,3.65378c.47659,.72805-.04573,1.69424-.9159,1.69424h-.67919c-.59171,0-1.14354-.29832-1.46762-.79339l-2.98151-4.55463Z" style="fill:#acb6c4;"/><path d="M33.57062,3.32559c-1.40561-.95296-3.01515-1.08366-4.65477-.37796-1.19319,.51367-1.98191,1.29657-2.01489,1.32965l.87272,.87255c.10418-.10351,2.58072-2.51367,5.10436-.80278,2.71925,1.84379,2.71925,4.95509,2.71925,6.28366v8.06311h-3.9443c-.46004,0-.833,.37294-.833,.83298v2.1793h1.42398v-1.36349c0-.18786,.15229-.34013,.34013-.34013h3.01318v1.75122h1.2341V10.63071c0-1.39325,0-5.09415-3.26078-7.30512Z" style="fill:#a3acba;"/><g><path d="M27.9922,5.86996l.66579-.63556c.14961-.14282,.15511-.37983,.0123-.52944l-1.28555-1.34669c-.1428-.14959-.37983-.15511-.52944-.0123l-.66579,.63556-4.21312,.55485,5.26598,5.51642,.74983-4.18285Z" style="fill:#cad5e6;"/><ellipse cx="24.57554" cy="7.32687" rx=".41989" ry="3.83675" transform="translate(1.74 18.9964) rotate(-43.66943)" style="fill:#a3acba;"/></g><circle cx="17.43599" cy="18.74434" r="2.81502" style="fill:#dde4f0;"/><circle cx="20.25101" cy="14.94187" r="2.81502" style="fill:#e4ebf7;"/><circle cx="26.91484" cy="21.55936" r="2.81502" style="fill:#e4ebf7;"/><circle cx="22.24377" cy="19.70332" r="3.774" style="fill:#d1d8e3;"/><circle cx="13.11667" cy="20.4191" r="3.774" style="fill:#e4ebf7;"/><path d="M38.31988,23.08924c0-.80201-.61078-1.46126-1.39256-1.53828-.04745-.00731-.09572-.01244-.14555-.01244h-7.52259c-11.42688-.40107-20.19759-2.11813-25.64908-2.8355-.08523-.01121-.16812-.0114-.24813-.00291-.04484-.00392-.0901-.00629-.13595-.00629-.85377,0-1.54589,.69211-1.54589,1.54589,0,.84955,.68536,1.53878,1.5333,1.54557,2.2841,5.4728,3.39314,7.72258,5.38085,10.50498,2.16375,3.02885,7.84708,4.7487,17.85978,4.12067,6.39374-.40102,9.47591-7.60216,10.74129-11.83441,.64889-.18349,1.12453-.77965,1.12453-1.48729Z" style="fill:#abb7c7;"/></g><rect width="40" height="40" style="fill:none;"/></svg>

<svg id="Layer_1" data-name="Layer 1" xmlns="http://www.w3.org/2000/svg" viewBox="0 0 40 40"><defs><style>.cls-1{fill:#acb6c4;}.cls-2{fill:#a3acba;}.cls-3{fill:#cad5e6;}.cls-4{fill:#dde4f0;}.cls-5{fill:#e4ebf7;}.cls-6{fill:#d1d8e3;}.cls-7{fill:#abb7c7;}.cls-8{fill:none;}</style></defs><path class="cls-1" d="M15.063,32.152H11.411L9.019,35.806A1.094,1.094,0,0,0,9.935,37.5h.679a1.754,1.754,0,0,0,1.468-.793Z"/><path class="cls-1" d="M27,32.152h3.652l2.392,3.654a1.1,1.1,0,0,1-.916,1.694h-.679a1.754,1.754,0,0,1-1.468-.793Z"/><path class="cls-2" d="M33.571,3.326a4.66,4.66,0,0,0-4.655-.378A7.024,7.024,0,0,0,26.9,4.277l.873.873c.1-.1,2.58-2.514,5.1-.8C35.6,6.191,35.6,9.3,35.6,10.631v8.063H31.653a.833.833,0,0,0-.833.833v2.179h1.424V20.343a.341.341,0,0,1,.34-.341H35.6v1.752h1.234V10.631C36.831,9.237,36.831,5.537,33.571,3.326Z"/><path class="cls-3" d="M27.992,5.87l.666-.636a.373.373,0,0,0,.012-.529L27.385,3.358a.376.376,0,0,0-.53-.012l-.665.636-4.214.554,5.266,5.517Z"/><ellipse class="cls-2" cx="24.576" cy="7.327" rx="0.42" ry="3.837" transform="translate(1.74 18.996) rotate(-43.669)"/><circle class="cls-4" cx="17.436" cy="18.744" r="2.815"/><circle class="cls-5" cx="20.251" cy="14.942" r="2.815"/><circle class="cls-5" cx="26.915" cy="21.559" r="2.815"/><circle class="cls-6" cx="22.244" cy="19.703" r="3.774"/><circle class="cls-5" cx="13.117" cy="20.419" r="3.774"/><path class="cls-7" d="M38.32,23.089a1.546,1.546,0,0,0-1.393-1.538.978.978,0,0,0-.145-.012H29.259c-11.427-.4-20.2-2.119-25.649-2.836a1.086,1.086,0,0,0-.248,0c-.045,0-.09-.006-.136-.006a1.546,1.546,0,0,0-.013,3.091C5.5,27.258,6.607,29.508,8.594,32.29c2.164,3.029,7.847,4.749,17.86,4.121,6.394-.4,9.476-7.6,10.741-11.834A1.547,1.547,0,0,0,38.32,23.089Z"/><rect class="cls-8" width="40" height="40"/></svg>
